X:133
T:Upon a Summer's Day
T:The Garland
T:A Summer's Day
M:6/8
L:1/8
K:G
B | "Em" B2 B G2 E | B3-B2 ^c/d/ | e2 d e2 f | "G" g3-g2 G |
"G" G2 G "D" F2 E | "D" d3 "Em" e3 | "Bm" f2 G "D" F2 F | "Em" E3-E2 :|
|: f | "Bm" f2 f d2 B | f3-f2 d | "Em" e2 d e2 f |"G" g3-g2 G |
"G" G2 G F2 E | "D" d3 "Em" e3 | "Bm" f2 G "D" F2 E | "Em" E3-E2 :|
%
%
